packages/kaspersky-hexa-ui-icons/src/iconsSVGs/16/SecurityCheck.svg

<svg width="16" height="16" viewBox="0 0 16 16" fill="none" xmlns="http://www.w3.org/2000/svg">
<path d="M10.559 7.2922C10.8129 7.03836 10.8129 6.6268 10.559 6.37296C10.3052 6.11912 9.89362 6.11912 9.63978 6.37296L7.76446 8.24829L6.7972 7.28103C6.54336 7.02719 6.13181 7.02719 5.87797 7.28103C5.62413 7.53487 5.62413 7.94643 5.87797 8.20027L7.30484 9.62714C7.42674 9.74904 7.59207 9.81753 7.76446 9.81753C7.93685 9.81753 8.10218 9.74904 8.22408 9.62714L10.559 7.2922Z" fill="black"/>
<path fill-rule="evenodd" clip-rule="evenodd" d="M7.83618 15.1291C7.8365 15.1292 7.8368 15.1293 8.00008 14.5001L7.83618 15.1291C7.95152 15.159 8.07349 15.1569 8.18759 15.1225L8.00008 14.5001C8.18759 15.1225 8.18729 15.1226 8.18759 15.1225L8.1888 15.1221L8.1903 15.1217L8.19413 15.1205L8.20508 15.1171C8.21383 15.1143 8.22545 15.1105 8.23981 15.1058C8.26852 15.0962 8.30819 15.0825 8.3577 15.0643C8.45668 15.0279 8.59526 14.9733 8.76437 14.8973C9.10222 14.7454 9.56439 14.5069 10.0772 14.1554C11.1036 13.4518 12.34 12.2901 13.1778 10.4629C13.6224 9.49323 13.7209 8.44228 13.7209 7.4774V4.13223C13.7209 3.88957 13.5857 3.66711 13.3703 3.55532L8.76024 1.16234C8.28366 0.91496 7.7165 0.914961 7.23991 1.16234L2.62984 3.55532C2.41446 3.66711 2.2793 3.88957 2.2793 4.13223V7.5192C2.2793 8.45628 2.3725 9.47266 2.78607 10.419C3.61939 12.3259 4.86676 13.5015 5.91063 14.1992C6.43141 14.5472 6.90172 14.7766 7.24617 14.9202C7.41858 14.9921 7.56008 15.0428 7.66142 15.0762C7.71211 15.0929 7.75283 15.1054 7.78242 15.1141C7.79722 15.1184 7.80925 15.1218 7.81835 15.1243L7.82982 15.1274L7.83388 15.1285L7.83618 15.1291ZM7.83883 2.31616C7.93992 2.26369 8.06023 2.26369 8.16132 2.31616L12.4209 4.52718V7.4774C12.4209 8.37056 12.3259 9.20182 11.9961 9.92109C11.2772 11.4891 10.2201 12.4814 9.34225 13.0831C8.90297 13.3842 8.51031 13.5862 8.23136 13.7116C8.13578 13.7545 8.05384 13.7884 7.9883 13.814C7.92304 13.7908 7.84151 13.76 7.74644 13.7203C7.46698 13.6038 7.07317 13.4125 6.63299 13.1183C5.75495 12.5315 4.69311 11.5365 3.97729 9.89845C3.66883 9.19261 3.5793 8.38521 3.5793 7.5192V4.52718L7.83883 2.31616Z" fill="black"/>
</svg>

<svg xmlns="http://www.w3.org/2000/svg" width="16" height="16" fill="none" viewBox="0 0 16 16"><path fill="#000" fill-rule="evenodd" d="M8 14.5001c-.1629.6279-.1635.6291-.1638.629zm.1876.6224c-.0003 0-.0013-.0044-.1875-.6224zm0 0 .0012-.0004.0015-.0004.0038-.0012.011-.0035a4 4 0 0 0 .1526-.0527c.099-.0364.2376-.091.4067-.167.3378-.1519.8-.3904 1.3128-.7419 1.0265-.7036 2.2628-1.8653 3.1006-3.6925.4446-.9697.5431-2.0206.5431-2.9855V4.1322a.65.65 0 0 0-.3506-.5769l-4.61-2.393a1.65 1.65 0 0 0-1.5204 0l-4.61 2.393a.65.65 0 0 0-.3506.577v3.387c0 .937.0932 1.9534.5068 2.8997.8333 1.9069 2.0807 3.0825 3.1245 3.7802.5208.348.9911.5774 1.3356.721.1724.0719.3139.1225.4152.156a4 4 0 0 0 .157.0481l.0114.0031.004.0011.0024.0006a.653.653 0 0 0 .3514-.0066M8.1613 2.3162a.35.35 0 0 0-.3225 0l-4.2595 2.211v2.992c0 .866.0895 1.6734.398 2.3793.7158 1.6379 1.7777 2.633 2.6557 3.2198.4402.2942.834.4855 1.1134.602.0951.0397.1766.0705.2419.0937a5.4 5.4 0 0 0 .243-.1024c.279-.1254.6717-.3274 1.111-.6285.8778-.6017 1.9349-1.5941 2.6538-3.162.3298-.7193.4248-1.5505.4248-2.4437V4.5272zM10.559 6.373a.65.65 0 0 1 0 .9192l-2.335 2.335a.65.65 0 0 1-.9192 0L5.878 8.2002a.65.65 0 0 1 .9192-.9192l.9673.9673L9.6398 6.373a.65.65 0 0 1 .9192 0"/></svg>
